fba/art/system.svg

<svg enable-background="new 0 0 566.929 458.929" height="416" viewBox="0 0 511.99999 416.00001" width="512" xmlns="http://www.w3.org/2000/svg"><g transform="matrix(.87488832 0 0 .87159452 8 7.999999)"><path clip-rule="evenodd" d="m564.898 182.695c.103-1.35 0-2.745 0-3.875.015-25.821.018-51.642-.007-77.463-.001-1.341-.074-2.729-.417-4.015-7.45-27.979-20.942-52.36-43.296-71.218-18.353-15.481-39.435-24.117-63.727-24.113-64.021.011-128.042.004-192.064.004-86.168 0-172.335-.001-258.502.01-1.591 0-3.182-.08-4.898 0v58.69c1.204.469 2.251.942 3.338 1.29 7.92 2.53 15.849 5.035 23.776 7.545 79.821 25.273 159.644 50.542 239.464 75.823 37.698 11.939 75.383 23.919 113.091 35.826 2.366.747 4.884 1.441 7.333 1.444 57.348.081 114.696.064 172.045.052 1.128 0 2.515.104 3.864 0zm-222.241-3.722c-51.406-16.294-102.396-32.456-154.027-48.82v226.685c-22.218 11.208-44.116 22.253-65.864 33.224v66.882h269.52c0-43.316 0-86.366 0-129.985-16.6 0-32.95 0-49.629 0 0-49.564 0-98.559 0-147.986zm17.448 17.717v114.012h204.543c0-38.089 0-75.92 0-114.012-68.267 0-136.273 0-204.543 0z" fill="#cf8a61" fill-rule="evenodd"/><path d="m394.272 458.929h-273.493v-70.091l65.865-33.224v-228.175l157.999 50.079v147.452h49.629zm-269.521-3.973h265.548v-126.013h-49.628v-148.516l-150.056-47.562v225.195l-65.864 33.224zm441.882-142.268h-208.513v-117.983h208.514v117.983zm-204.542-3.972h200.57v-110.039h-200.57zm201.459-123.988c-.484 0-.96-.013-1.417-.025-.383-.01-.75-.021-1.092-.021l-8.07.002c-19.899.004-39.796.008-59.696.008-41.668 0-73.831-.019-104.289-.062-2.703-.004-5.407-.741-7.929-1.537-24.306-7.675-48.603-15.38-72.898-23.086-13.398-4.249-26.795-8.498-40.194-12.741-56.305-17.833-112.612-35.66-168.919-53.487l-74.236-23.504c-6.698-2.121-13.396-4.241-20.09-6.378-.807-.258-1.556-.564-2.349-.887-.357-.146-.723-.295-1.106-.444l-1.265-.493v-61.945l1.894-.088c1.19-.055 2.322-.038 3.433-.019.518.009 1.031.017 1.544.017 72.686-.009 145.355-.009 218.027-.009l151.407.002c27.049 0 54.099-.001 81.146-.006 23.806 0 45.671 8.27 65.007 24.581 21.438 18.085 35.81 41.71 43.935 72.226.428 1.604.483 3.261.484 4.524.023 25.822.021 51.644.007 77.466 0 .342.011.711.021 1.097.023.894.051 1.906-.026 2.927l-.129 1.699-1.699.131c-.5.038-1.005.052-1.501.052zm-2.516-4.019c.384 0 .787.011 1.208.022.231.006.469.013.71.018-.005-.243-.012-.484-.018-.724-.012-.423-.022-.828-.022-1.205.015-25.821.018-51.641-.007-77.461-.001-1.023-.041-2.346-.35-3.506-7.909-29.702-21.862-52.668-42.658-70.211-18.6-15.69-39.604-23.646-62.429-23.646-27.064.004-54.114.006-81.163.006l-151.407-.002c-72.672 0-145.342 0-218.014.01-.549 0-1.084-.009-1.624-.018-.425-.007-.853-.013-1.288-.016v55.396c.682.278 1.329.54 1.958.741 6.688 2.136 13.384 4.256 20.079 6.375l74.236 23.504c56.307 17.827 112.614 35.654 168.919 53.487 13.399 4.244 26.797 8.493 40.194 12.742 24.295 7.705 48.59 15.41 72.895 23.084 2.219.701 4.57 1.35 6.738 1.353 30.456.043 62.617.062 104.283.062 19.9 0 39.797-.004 59.695-.008z"/><path clip-rule="evenodd" d="m564.898 182.695-178.77-.052-384.142-121.739s0-39.136 0-58.88c1.717-.08 177.233-.01 263.401-.01 64.021 0 128.043.007 192.064-.003 24.292-.004 45.374 8.632 63.727 24.113 22.354 18.858 35.846 43.239 43.296 71.218.343 1.286.416 2.673.417 4.015.025 25.822.007 81.338.007 81.338z" fill="#cf8a61" fill-rule="evenodd"/><path d="m566.883 184.682-181.062-.052-.293-.093-385.528-122.179v-62.23l1.894-.088c.403-.018 7.359-.04 57.984-.04 30.269 0 68.808.007 106.595.015 36.342.007 71.988.014 98.914.014l110.918.002c27.053 0 54.095-.001 81.146-.006 23.806 0 45.671 8.27 65.007 24.581 21.438 18.085 35.81 41.711 43.935 72.226.427 1.604.483 3.26.484 4.524.023 25.822.007 81.34.007 81.34zm-180.447-4.024 176.477.051c.003-10.128.014-56.434-.008-79.35-.001-1.023-.041-2.346-.35-3.506-7.909-29.702-21.862-52.668-42.658-70.211-18.6-15.69-39.604-23.646-62.429-23.646-27.068.004-54.11.006-81.163.006l-110.918-.002c-26.926 0-62.573-.007-98.915-.014-37.787-.007-76.326-.014-106.594-.014-12.41 0-47.302 0-55.906.025v55.453z"/><path clip-rule="evenodd" d="m342.657 178.973v147.984h49.629v129.985c-89.912 0-179.575 0-269.52 0 0-22.296 0-44.378 0-66.882 21.748-10.971 43.646-22.016 65.864-33.224 0-75.393 0-150.66 0-226.685 51.631 16.366 102.62 32.527 154.027 48.822z" fill="#cf8a61" fill-rule="evenodd"/><path d="m394.272 458.929h-273.493v-70.091l65.865-33.224v-228.175l157.999 50.079v147.452h49.629zm-269.521-3.973h265.548v-126.013h-49.628v-148.516l-150.056-47.562v225.195l-65.864 33.224z"/><path clip-rule="evenodd" d="m360.105 196.69h204.543v114.012c-68.269 0-136.276 0-204.543 0 0-38.092 0-75.923 0-114.012z" fill="#cf8a61" fill-rule="evenodd"/><path d="m566.633 312.688h-208.513v-117.983h208.514v117.983zm-204.542-3.972h200.57v-110.039h-200.57z"/></g></svg>

<?xml version="1.0" encoding="UTF-8" standalone="no"?>
<svg
   xmlns:dc="http://purl.org/dc/elements/1.1/"
   xmlns:cc="http://creativecommons.org/ns#"
   xmlns:rdf="http://www.w3.org/1999/02/22-rdf-syntax-ns#"
   xmlns:svg="http://www.w3.org/2000/svg"
   xmlns="http://www.w3.org/2000/svg"
   xmlns:sodipodi="http://sodipodi.sourceforge.net/DTD/sodipodi-0.dtd"
   xmlns:inkscape="http://www.inkscape.org/namespaces/inkscape"
   version="1.1"
   id="Ebene_1"
   x="0px"
   y="0px"
   width="512"
   height="416"
   viewBox="0 0 511.99999 416.00001"
   enable-background="new 0 0 566.929 458.929"
   xml:space="preserve"
   sodipodi:docname="system.svg"
   inkscape:version="1.0.2 (e86c8708, 2021-01-15)"><metadata
   id="metadata5204"><rdf:RDF><cc:Work
       rdf:about=""><dc:format>image/svg+xml</dc:format><dc:type
         rdf:resource="http://purl.org/dc/dcmitype/StillImage" /><dc:title></dc:title></cc:Work></rdf:RDF></metadata><defs
   id="defs5202" /><sodipodi:namedview
   pagecolor="#ffffff"
   bordercolor="#666666"
   borderopacity="1"
   objecttolerance="10"
   gridtolerance="10"
   guidetolerance="10"
   inkscape:pageopacity="0"
   inkscape:pageshadow="2"
   inkscape:window-width="1155"
   inkscape:window-height="710"
   id="namedview5200"
   showgrid="false"
   inkscape:zoom="1"
   inkscape:cx="283.46451"
   inkscape:cy="229.46449"
   inkscape:window-x="0"
   inkscape:window-y="23"
   inkscape:window-maximized="0"
   inkscape:current-layer="Ebene_1" />
<g
   id="g5219"
   transform="matrix(0.87488832,0,0,0.87159452,7.9999995,7.9999993)"><g
     id="g5197">
	<g
   id="g5177">
		<path
   fill-rule="evenodd"
   clip-rule="evenodd"
   fill="#cf8a61"
   d="m 564.898,182.695 c 0.103,-1.35 0,-2.745 0,-3.875 0.015,-25.821 0.018,-51.642 -0.007,-77.463 -10e-4,-1.341 -0.074,-2.729 -0.417,-4.015 C 557.024,69.363 543.532,44.982 521.178,26.124 502.825,10.643 481.743,2.007 457.451,2.011 393.43,2.022 329.409,2.015 265.387,2.015 179.219,2.015 93.052,2.014 6.885,2.025 c -1.591,0 -3.182,-0.08 -4.898,0 0,19.744 0,39.258 0,58.69 1.204,0.469 2.251,0.942 3.338,1.29 7.92,2.53 15.849,5.035 23.776,7.545 79.821,25.273 159.644,50.542 239.464,75.823 37.698,11.939 75.383,23.919 113.091,35.826 2.366,0.747 4.884,1.441 7.333,1.444 57.348,0.081 114.696,0.064 172.045,0.052 1.128,0 2.515,0.104 3.864,0 z m -222.241,-3.722 c -51.406,-16.294 -102.396,-32.456 -154.027,-48.82 0,76.025 0,151.292 0,226.685 -22.218,11.208 -44.116,22.253 -65.864,33.224 0,22.504 0,44.586 0,66.882 89.945,0 179.608,0 269.52,0 0,-43.316 0,-86.366 0,-129.985 -16.6,0 -32.95,0 -49.629,0 0,-49.564 0,-98.559 0,-147.986 z m 17.448,17.717 c 0,38.089 0,75.92 0,114.012 68.267,0 136.274,0 204.543,0 0,-38.089 0,-75.92 0,-114.012 -68.267,0 -136.273,0 -204.543,0 z"
   id="path5173" />
		<path
   d="M 394.272,458.929 H 120.779 v -70.091 l 65.865,-33.224 V 127.439 l 157.999,50.079 V 324.97 h 49.629 V 458.929 Z M 124.751,454.956 H 390.299 V 328.943 H 340.671 V 180.427 L 190.615,132.865 V 358.06 l -65.864,33.224 z M 566.633,312.688 H 358.12 V 194.705 h 208.514 v 117.983 z m -204.542,-3.972 h 200.57 V 198.677 H 362.091 Z M 563.55,184.728 c -0.484,0 -0.96,-0.013 -1.417,-0.025 -0.383,-0.01 -0.75,-0.021 -1.092,-0.021 l -8.07,0.002 c -19.899,0.004 -39.796,0.008 -59.696,0.008 -41.668,0 -73.831,-0.019 -104.289,-0.062 -2.703,-0.004 -5.407,-0.741 -7.929,-1.537 -24.306,-7.675 -48.603,-15.38 -72.898,-23.086 -13.398,-4.249 -26.795,-8.498 -40.194,-12.741 C 211.66,129.433 155.353,111.606 99.046,93.779 L 24.81,70.275 C 18.112,68.154 11.414,66.034 4.72,63.897 3.913,63.639 3.164,63.333 2.371,63.01 2.014,62.864 1.648,62.715 1.265,62.566 L 0,62.073 V 0.128 L 1.894,0.04 C 3.084,-0.015 4.216,0.002 5.327,0.021 5.845,0.03 6.358,0.038 6.871,0.038 79.557,0.029 152.226,0.029 224.898,0.029 l 151.407,0.002 c 27.049,0 54.099,-0.001 81.146,-0.006 23.806,0 45.671,8.27 65.007,24.581 21.438,18.085 35.81,41.71 43.935,72.226 0.428,1.604 0.483,3.261 0.484,4.524 0.023,25.822 0.021,51.644 0.007,77.466 0,0.342 0.011,0.711 0.021,1.097 0.023,0.894 0.051,1.906 -0.026,2.927 l -0.129,1.699 -1.699,0.131 c -0.5,0.038 -1.005,0.052 -1.501,0.052 z m -2.516,-4.019 c 0.384,0 0.787,0.011 1.208,0.022 0.231,0.006 0.469,0.013 0.71,0.018 -0.005,-0.243 -0.012,-0.484 -0.018,-0.724 -0.012,-0.423 -0.022,-0.828 -0.022,-1.205 0.015,-25.821 0.018,-51.641 -0.007,-77.461 -10e-4,-1.023 -0.041,-2.346 -0.35,-3.506 C 554.646,68.151 540.693,45.185 519.897,27.642 501.297,11.952 480.293,3.996 457.468,3.996 430.404,4 403.354,4.002 376.305,4.002 L 224.898,4 C 152.226,4 79.556,4 6.884,4.01 6.335,4.01 5.8,4.001 5.26,3.992 4.835,3.985 4.407,3.979 3.972,3.976 v 55.396 c 0.682,0.278 1.329,0.54 1.958,0.741 6.688,2.136 13.384,4.256 20.079,6.375 l 74.236,23.504 c 56.307,17.827 112.614,35.654 168.919,53.487 13.399,4.244 26.797,8.493 40.194,12.742 24.295,7.705 48.59,15.41 72.895,23.084 2.219,0.701 4.57,1.35 6.738,1.353 30.456,0.043 62.617,0.062 104.283,0.062 19.9,0 39.797,-0.004 59.695,-0.008 z"
   id="path5175" />
	</g>
	<g
   id="g5183">
		<path
   fill-rule="evenodd"
   clip-rule="evenodd"
   fill="#cf8a61"
   d="M 564.898,182.695 386.128,182.643 1.986,60.904 c 0,0 0,-39.136 0,-58.88 1.717,-0.08 177.233,-0.01 263.401,-0.01 64.021,0 128.043,0.007 192.064,-0.003 24.292,-0.004 45.374,8.632 63.727,24.113 22.354,18.858 35.846,43.239 43.296,71.218 0.343,1.286 0.416,2.673 0.417,4.015 0.025,25.822 0.007,81.338 0.007,81.338 z"
   id="path5179" />
		<path
   d="M 566.883,184.682 385.821,184.63 385.528,184.537 0,62.358 V 0.128 L 1.894,0.04 C 2.297,0.022 9.253,0 59.878,0 c 30.269,0 68.808,0.007 106.595,0.015 36.342,0.007 71.988,0.014 98.914,0.014 l 110.918,0.002 c 27.053,0 54.095,-0.001 81.146,-0.006 23.806,0 45.671,8.27 65.007,24.581 21.438,18.085 35.81,41.711 43.935,72.226 0.427,1.604 0.483,3.26 0.484,4.524 0.023,25.822 0.007,81.34 0.007,81.34 z m -180.447,-4.024 176.477,0.051 c 0.003,-10.128 0.014,-56.434 -0.008,-79.35 -10e-4,-1.023 -0.041,-2.346 -0.35,-3.506 C 554.646,68.151 540.693,45.185 519.897,27.642 501.297,11.952 480.293,3.996 457.468,3.996 430.4,4 403.358,4.002 376.305,4.002 L 265.387,4 C 238.461,4 202.814,3.993 166.472,3.986 128.685,3.979 90.146,3.972 59.878,3.972 c -12.41,0 -47.302,0 -55.906,0.025 V 59.45 Z"
   id="path5181" />
	</g>
	<g
   id="g5189">
		<path
   fill-rule="evenodd"
   clip-rule="evenodd"
   fill="#cf8a61"
   d="m 342.657,178.973 c 0,49.428 0,98.422 0,147.984 16.679,0 33.029,0 49.629,0 0,43.619 0,86.669 0,129.985 -89.912,0 -179.575,0 -269.52,0 0,-22.296 0,-44.378 0,-66.882 21.748,-10.971 43.646,-22.016 65.864,-33.224 0,-75.393 0,-150.66 0,-226.685 51.631,16.366 102.62,32.527 154.027,48.822 z"
   id="path5185" />
		<path
   d="M 394.272,458.929 H 120.779 v -70.091 l 65.865,-33.224 V 127.439 l 157.999,50.079 V 324.97 h 49.629 V 458.929 Z M 124.751,454.956 H 390.299 V 328.943 H 340.671 V 180.427 L 190.615,132.865 V 358.06 l -65.864,33.224 z"
   id="path5187" />
	</g>
	<g
   id="g5195">
		<path
   fill-rule="evenodd"
   clip-rule="evenodd"
   fill="#cf8a61"
   d="m 360.105,196.69 c 68.27,0 136.276,0 204.543,0 0,38.092 0,75.923 0,114.012 -68.269,0 -136.276,0 -204.543,0 0,-38.092 0,-75.923 0,-114.012 z"
   id="path5191" />
		<path
   d="M 566.633,312.688 H 358.12 V 194.705 h 208.514 v 117.983 z m -204.542,-3.972 h 200.57 V 198.677 h -200.57 z"
   id="path5193" />
	</g>
</g></g>
</svg>
